X:1
T:Title
%%score { ( 1 3 ) | ( 2 4 ) }
L:1/8
M:3/4
K:E
V:1 treble nm="Grand Piano"
V:3 treble 
V:2 bass 
V:4 bass 
V:1
 z2 z2[Q:1/4=86] [GB][FA] | G3 G =G^G | A2 G2 GG | G3 G FE | [DB]4 BB | e3 d cG | B2 A2 AA | %7
 .E2 z2 z2 |[M:5/8] [G,E]-[G,E]- [G,E]3 |[M:1/4] GG |[M:3/4] [Ec]3 [Ec] [F^B][Fd] | %11
 [Ec]2 [EG]2 GG[Q:1/4=85][Q:1/4=83][Q:1/4=82][Q:1/4=81] | %12
 G3 F EF[Q:1/4=80][Q:1/4=78][Q:1/4=77][Q:1/4=76][Q:1/4=75][Q:1/4=73][Q:1/4=72][Q:1/4=71][Q:1/4=70][Q:1/4=68][Q:1/4=67][Q:1/4=66] | %13
[M:4/4] [^B,G]6 [B,G][B,G] |[M:3/4][Q:1/4=86] [CG]3 [A,CF] [A,C^E][A,CF] | [FAd]2 [EAc]2 [Ac][EA] | %16
 [B,EG]3 [B,E] [A,DF][DG] |[M:5/8] [G,B,E]-[G,B,E]- [G,B,E]3 |[M:1/4] ec |[M:3/4] B3 G =G^G | %20
 c2 B2 EC | B,3 G, =G,^G, | C2 B,2[K:treble] e2 | B6- | B4 z2 | G6- | G4 z2 | [DF]3 [EG] [FA][Ac] | %28
 [GB]4 [EG]2 | [DF]3 [EG]/[EG]/ [FA][Ac] | [GB]4 [GB]2 | ed cB AG |[M:7/8] G2 F3 [Dc]2 | %33
[M:3/4] [Ec][EB] [CEA][B,EG] [A,EF][B,EG] | [A,DF]6 |[M:2/4] [G,E]4 |] %36
V:2
 z2 z2 [E,E][E,E] | [E,B,E]3 [E,B,E] [E,^A,E][E,B,E] | [E,CE]2 [E,B,E]2 [E,B,E][E,B,E] | %3
 [F,^A,E]3 [F,A,E] [F,A,E][F,A,] | [B,,B,]4 [A,B,D][A,B,D] | [G,B,E]3 [G,B,E] [G,B,E][G,B,E] | %6
 [F,A,C]2 [F,A,C]2 CC | B,,B,, B,,B,, B,,B,, |[M:5/8] E,E, E,3 |[M:1/4] G,G, | %10
[M:3/4] [C,G,]3 [C,G,] [D,G,][G,^B,] | [C,C]2 [C,C]2 G,G, | G,3 F, E,F, | %13
[M:4/4] [G,,D,]6 [G,,G,][G,,G,] |[M:3/4] [A,,E,]3 G,, A,,A,, | A,,2 A,,2 EC | B,,B,, z G, z B, | %17
[M:5/8] E,E, E,3 |[M:1/4][K:treble] GA |[M:3/4] G3 E EE | A2 G2[K:bass] E,A, | G,3 E, E,E, | %22
 A,2 G,2 z2 | z2 z2 [E,E]2 | [E,E]4 z2 | z2 z2 [C,G,]2 | [C,G,]4 [C,G,]2 | %27
 [B,,B,]3 [B,,B,] [B,,B,][B,,B,] | [E,B,]4 [E,B,]2 | [B,,B,]3 [B,,B,]/[B,,B,]/ [B,,B,][B,,B,] | %30
 [E,B,]4 [E,B,]2 | [G,B,E]4 [G,B,E][G,B,E] |[M:7/8] [A,CE]2 [A,CE]3 [B,,A,]2 | %33
[M:3/4] [B,,G,][B,,G,] B,,B,, B,,B,, | B,,6 |[M:2/4] E,4 |] %36
V:3
 x6 | x6 | x6 | x6 | x6 | x6 | x6 | [B,G]-[B,-EG-] [B,EG][G,B,E] [A,DF][B,DG] |[M:5/8] B,B, B,3 | %9
[M:1/4] x2 |[M:3/4] x6 | x6 | x6 |[M:4/4] x8 |[M:3/4] x6 | x6 | x6 |[M:5/8] x5 |[M:1/4] x2 | %19
[M:3/4] x6 | x6 | x6 | x4[K:treble] x2 | z2 z2 G2 | G4 c2 | z2 z2 E2 | E4 E2 | x6 | x6 | x6 | x6 | %31
 x6 |[M:7/8] x7 |[M:3/4] x6 | x6 |[M:2/4] x4 |] %36
V:4
 x6 | x6 | x6 | x6 | x6 | x6 | x6 | x6 |[M:5/8] x5 |[M:1/4] x2 |[M:3/4] x6 | x6 | x6 |[M:4/4] x8 | %14
[M:3/4] x6 | x6 | z2 B,,2 B,,2 |[M:5/8] x5 |[M:1/4][K:treble] x2 |[M:3/4] x6 | x4[K:bass] x2 | x6 | %22
 x6 | x6 | x6 | x6 | x6 | x6 | x6 | x6 | x6 | x6 |[M:7/8] x7 |[M:3/4] x6 | x6 |[M:2/4] x4 |] %36

